assets/images/pr-cy/audit.pr-cy.ru.svg

<?xml version="1.0" encoding="UTF-8" standalone="no"?>
<svg width="32px" height="32px" viewBox="0 0 32 32" version="1.1" xmlns="http://www.w3.org/2000/svg" xmlns:xlink="http://www.w3.org/1999/xlink" xmlns:sketch="http://www.bohemiancoding.com/sketch/ns">
    <!-- Generator: Sketch 3.0.3 (7891) - http://www.bohemiancoding.com/sketch -->
    <title>Audit</title>
    <desc>Created with Sketch.</desc>
    <defs></defs>
    <g id="Page-1" stroke="none" stroke-width="1" fill="none" fill-rule="evenodd" sketch:type="MSPage">
        <g id="Audit" sketch:type="MSArtboardGroup">
            <g id="Ufo" sketch:type="MSLayerGroup" transform="translate(1.000000, 4.000000)">
                <path d="M10.1351351,16.2500406 L19.8648649,16.2500406 L23.9189189,26 L6.08108108,26 L10.1351351,16.2500406 L10.1351351,16.2500406 Z" id="Shape" fill="#DBE0EC" sketch:type="MSShapeGroup"></path>
                <ellipse id="Oval" fill="#09455B" sketch:type="MSShapeGroup" cx="15" cy="10.5625" rx="15" ry="6.09375"></ellipse>
                <path d="M23.1081081,13.0000406 C21.7647162,13.0000406 20.6756757,11.9087312 20.6756757,10.5625406 C20.6756757,9.21630937 21.7647162,8.12504062 23.1081081,8.12504062 C24.4515405,8.12504062 25.5405405,9.21630937 25.5405405,10.5625406 C25.5405405,11.9087312 24.4515405,13.0000406 23.1081081,13.0000406 L23.1081081,13.0000406 Z M15,13.0000406 C13.6566081,13.0000406 12.5675676,11.9087312 12.5675676,10.5625406 C12.5675676,9.21630937 13.6566081,8.12504062 15,8.12504062 C16.3434324,8.12504062 17.4324324,9.21630937 17.4324324,10.5625406 C17.4324324,11.9087312 16.3434324,13.0000406 15,13.0000406 L15,13.0000406 Z M6.89189189,13.0000406 C5.54854054,13.0000406 4.45945946,11.9087312 4.45945946,10.5625406 C4.45945946,9.21630937 5.54854054,8.12504062 6.89189189,8.12504062 C8.23528378,8.12504062 9.32432432,9.21630937 9.32432432,10.5625406 C9.32432432,11.9087312 8.23528378,13.0000406 6.89189189,13.0000406 L6.89189189,13.0000406 Z" id="Shape" fill="#FFFFFF" sketch:type="MSShapeGroup"></path>
                <path d="M10.1351351,4.87504063 C10.1351351,2.18261469 12.3132162,3.95695625e-05 15,3.95695625e-05 C17.6868243,3.95695625e-05 19.8648649,2.18261469 19.8648649,4.87504063 L10.1351351,4.87504063 L10.1351351,4.87504063 Z" id="Shape" fill="#758CBF" sketch:type="MSShapeGroup"></path>
            </g>
        </g>
    </g>
</svg>

<svg xmlns="http://www.w3.org/2000/svg" height="32" width="32" viewBox="0 0 32 32"><title>Audit</title><desc>Created with Sketch.</desc><g transform="translate(1 4)" fill-rule="evenodd" fill="none"><path id="Shape" fill="#DBE0EC" d="M10.135 16.25h9.73L23.92 26H6.08l4.055-9.75z"/><ellipse rx="15" ry="6.094" cy="10.562" cx="15" fill="#09455B"/><path fill="#fff" d="M23.108 13c-1.343 0-2.432-1.09-2.432-2.437 0-1.347 1.09-2.438 2.432-2.438 1.344 0 2.433 1.09 2.433 2.438 0 1.347-1.087 2.437-2.43 2.437zM15 13c-1.343 0-2.432-1.09-2.432-2.437 0-1.347 1.09-2.438 2.432-2.438s2.432 1.09 2.432 2.438C17.432 11.91 16.342 13 15 13zm-8.108 0c-1.344 0-2.433-1.09-2.433-2.437 0-1.347 1.09-2.438 2.43-2.438s2.433 1.09 2.433 2.438c0 1.347-1.09 2.437-2.43 2.437z"/><path fill="#758CBF" d="M10.135 4.875C10.135 2.183 12.313 0 15 0c2.687 0 4.865 2.183 4.865 4.875h-9.73z"/></g></svg>
